src/actions/symbolic/hospital-symbolic.svg

<svg width="16" height="16" version="1.1" viewBox="0 0 16 16" xmlns="http://www.w3.org/2000/svg">
 <path d="m4 0c-0.554 0-1 0.446-1 1v4h-1c-0.554 0-1 0.446-1 1v9h-1v1h16v-1h-1v-9c0-0.554-0.446-1-1-1h-1v-4c0-0.554-0.446-1-1-1zm0 1h8v5h2v2h-12v-2h2v-1zm3.5 1v2h-2v1h2v2h1v-2h2v-1h-2v-2zm-5.5 7h3v2h-3zm4 0h4v2h-4zm5 0h3v2h-3zm-9 3h3v3h-3zm4 0h4v3h-4zm5 0h3v3h-3z" fill="#363636"/>
</svg>

<svg xmlns="http://www.w3.org/2000/svg" width="16" height="16">
    <path fill="#050505" fill-opacity=".7" d="M4 0c-.554 0-1 .446-1 1v4H2c-.554 0-1 .446-1 1v9H0v1h16v-1h-1V6c0-.554-.446-1-1-1h-1V1c0-.554-.446-1-1-1zm0 1h8v5h2v2H2V6h2V5zm3.5 1v2h-2v1h2v2h1V5h2V4h-2V2zM2 9h3v2H2zm4 0h4v2H6zm5 0h3v2h-3zm-9 3h3v3H2zm4 0h4v3H6zm5 0h3v3h-3z"/>
</svg>
